resources/assets/images/apartment-details/eye.svg

<?xml version="1.0" encoding="UTF-8"?>
<svg width="24px" height="12px" viewBox="0 0 24 12" version="1.1" xmlns="http://www.w3.org/2000/svg" xmlns:xlink="http://www.w3.org/1999/xlink">
    <!-- Generator: Sketch 60.1 (88133) - https://sketch.com -->
    <title>Eye</title>
    <desc>Created with Sketch.</desc>
    <g id="01-03-Apartment-Details" stroke="none" stroke-width="1" fill="none" fill-rule="evenodd">
        <g id="01-03-02-01-Listing-Page" transform="translate(-456.000000, -1018.000000)" fill="#666B7C" fill-rule="nonzero">
            <g id="Features" transform="translate(240.000000, 936.000000)">
                <g id="View" transform="translate(192.000000, 52.000000)">
                    <g id="Icons/view" transform="translate(24.000000, 30.000000)">
                        <g id="noun_View_1026829">
                            <g id="Eye">
                                <path d="M12.0571429,0.163636364 C7.57142857,0.163636364 3.37142857,2.1 0.2,5.61818182 C0.114285714,5.72727273 0.0571428571,5.86363636 0.0571428571,6 C0.0571428571,6.13636364 0.114285714,6.27272727 0.228571429,6.38181818 C3.4,9.9 7.6,11.8363636 12.0571429,11.8363636 C16.4285714,11.8363636 20.6,9.9 23.8285714,6.35454545 C24.0285714,6.13636364 24,5.83636364 23.8285714,5.64545455 C20.6,2.1 16.4,0.163636364 12.0571429,0.163636364 Z M12.0571429,10.7454545 C8.05714286,10.7454545 4.28571429,9.05454545 1.4,6 C4.28571429,2.94545455 8.05714286,1.25454545 12.0571429,1.25454545 C15.9428571,1.25454545 19.6571429,2.94545455 22.6285714,6 C19.6571429,9.05454545 15.9428571,10.7454545 12.0571429,10.7454545 Z" id="Shape"></path>
                                <path d="M12,1.63636364 C9.48571429,1.63636364 7.42857143,3.6 7.42857143,6 C7.42857143,8.4 9.48571429,10.3636364 12,10.3636364 C14.5142857,10.3636364 16.5714286,8.4 16.5714286,6 C16.5714286,3.6 14.5142857,1.63636364 12,1.63636364 Z M12,9.27272727 C10.1142857,9.27272727 8.57142857,7.8 8.57142857,6 C8.57142857,4.2 10.1142857,2.72727273 12,2.72727273 C13.8857143,2.72727273 15.4285714,4.2 15.4285714,6 C15.4285714,7.8 13.8857143,9.27272727 12,9.27272727 Z" id="Shape"></path>
                                <path d="M12,3.27272727 C10.4285714,3.27272727 9.14285714,4.5 9.14285714,6 C9.14285714,6.3 9.4,6.54545455 9.71428571,6.54545455 C10.0285714,6.54545455 10.2857143,6.3 10.2857143,6 C10.2857143,5.1 11.0571429,4.36363636 12,4.36363636 C12.3142857,4.36363636 12.5714286,4.11818182 12.5714286,3.81818182 C12.5714286,3.51818182 12.3142857,3.27272727 12,3.27272727 Z" id="Path"></path>
                            </g>
                        </g>
                    </g>
                </g>
            </g>
        </g>
    </g>
</svg>

<svg xmlns="http://www.w3.org/2000/svg" width="24" height="24" viewBox="0 0 24 24"><g><g><g><g><g><path fill="#666b7c" d="M12.06 10.742c-4 0-7.771-1.691-10.657-4.746C4.289 2.942 8.06 1.251 12.06 1.251c3.886 0 7.6 1.69 10.571 4.745-2.971 3.055-6.685 4.746-10.571 4.746zm0-10.582C7.574.16 3.374 2.096.203 5.615a.633.633 0 0 0-.143.381c0 .137.057.273.171.382 3.172 3.518 7.372 5.455 11.829 5.455 4.371 0 8.543-1.937 11.771-5.482a.52.52 0 0 0 0-.71C20.603 2.097 16.403.16 12.06.16z"/></g><g><path fill="#666b7c" d="M12.001 9.276c-1.885 0-3.428-1.472-3.428-3.272 0-1.8 1.543-3.273 3.428-3.273 1.886 0 3.429 1.473 3.429 3.273s-1.543 3.272-3.429 3.272zm0-7.636c-2.514 0-4.571 1.964-4.571 4.364s2.057 4.363 4.571 4.363c2.515 0 4.572-1.963 4.572-4.363 0-2.4-2.057-4.364-4.572-4.364z"/></g><g><path fill="#666b7c" d="M11.997 3.27c-1.571 0-2.857 1.227-2.857 2.727 0 .3.257.546.571.546a.56.56 0 0 0 .572-.546c0-.9.771-1.636 1.714-1.636a.56.56 0 0 0 .572-.546.56.56 0 0 0-.572-.545z"/></g></g></g></g></g></svg>
